X: 386
T: Bir Kendi Gibi Zalimi Sevmiş
C: Lem´i Atlı
O: Turkey
F: http://compmusic.upf.edu/node/140
N: kurdilihicazkar--sarki--senginsemai--bir_kendi--lemi_atli
N: makam= kurdilihicazkar
N: form= sarki
N: usul= senginsemai = 6/4
M: 6/4
L: 1/16
K: C _B _e _A 
Q: 1/4=66
%%MIDI tuningsystem comma53
G4 g4 gagf e3/2d/ef g8  | _2/4efg=a b2ag g3f f_7/8eed d6z2  | 
w:  ARANAĞME  |   | 
d3e f2a2 g2f2 e2d2 cBcd B2AG  | G3g fedc B3A BAAG G8  | 
w:   |   | 
G4 g4 gagf e3/2d/ef g8  | _2/4efg=a b2ag g3f f_7/8eed d6z2  | 
w:  ARANAĞME  |   | 
d3e f2a2 g2f2 e2d2 cBcd B2AG  | G3g fedc B3A BAAG G8  | 
w:   |   | 
f3g g4 g2f2 g2{b}ag g8  | g2b2 =a2g2 g3f f2_2/4e2 gfed d4  | 
w:  Bir  *  ken di  *  gi *  *  *  bi   |  za *  *  *  li *  mi  *  sev  | 
g2{b}ag f2_2/4e2 f2g2 a2=b2 a3g f2{b}ag  | \
w:  miş  *  *  *  *  *  ya *  nı *  yor  | 
g8 zgfe dcBA G8  | 
w:  muş   SAZ  | 
f3g g4 g2f2 g2{b}ag g8  | g2b2 =a2g2 g3f f2_2/4e2 gfed d4  | 
w:  Bir  *  ken di  *  gi *  *  *  bi   |  za *  *  *  li *  mi  *  sev  | 
g2{b}ag f2_2/4e2 f2g2 a2=b2 a3g f2{b}ag  | \
w:  miş  *  *  *  *  *  ya *  nı *  yor  | 
g8 gagf edef g8  | 
w:  muş   SAZ  | 
g3f e3d d3c c2{e}dc B8  | d2{f}ed c4 B2c2 BAAG F8  | 
w:  Duy *  dum  *  ki  *  be *  *  *  ni   |  şim *  *  *  *  di  *  ve *  *  *  fâ  | 
d2{f}ed c4 B3A A3G {e}d2cB BAAG  | \
w:  sız  *  *  *  *  a *  nı *  *  yor  | 
G8 gagf edef g8  | 
w:  muş   SAZ  | 
g3f e3d d3c c2{e}dc B8  | d2{f}ed c4 B2c2 BAAG F8  | 
w:  Duy *  dum  *  ki  *  be *  *  *  ni   |  şim *  *  *  *  di  *  ve *  *  *  fâ  | 
d2{f}ed c4 B3A A3G {e}d2cB BAAG  | \
w:  sız  *  *  *  *  a *  nı *  *  yor  | 
G8 dedc BABc d8  | 
w:  muş   SAZ  | 
c3d d4 d4 d4 d6c2  | g2f2 f2g2 f3_3/4e feed d8  | \
w:  Kal *  bim  gi bi  fer  |  yad  *  *  *  e *  di *  *  *  yor   | 
f2{g}f_3/4e d4 e3d c4 e2f2 g2a2  | 
w:  sız *  *  *  *  la *  nı yor  | 
f2g2 a2=b2 g2a2 b2c'2 d'8  | c'3d' d'4 d'4 d'4 e'd'c'd' c'2b2  | \
w:  muş    |  Kal *  bim  gi bi  fer  | 
e'6d'c' b2{d'}c'b baag g8  | 
w:  yad  *  *  e *  *  *  di *  *  *  yor   | 
g2{b}_7/8ag f2_2/4e2 f2g2 a2_1/4b2 a3g f2{b}ag  | \
w:  sız *  *  *  *  *  la *  nı *  yor  | 
g8 gagf edef g8  | 
w:  muş   SAZ  | 
g3f e3d d3c c2{e}dc B8  | d2{f}ed c4 B2c2 BAAG F8  | 
w:  Duy *  dum  *  ki  *  be *  *  *  ni   |  şim *  *  *  *  di  *  ve *  *  *  fâ  | 
d2{f}ed c4 B3A A3G {e}d2cB BAAG  | \
w:  sız  *  *  *  *  a *  nı *  *  yor  | 
G8 gagf edef g8  | 
w:  muş   SAZ  | 
g3f e3d d3c c2{e}dc B8  | d2{f}ed c4 B2c2 BAAG F8  | 
w:  Duy *  dum  *  ki  *  be *  *  *  ni   |  şim *  *  *  *  di  *  ve *  *  *  fâ  | 
d2{f}ed c4 B3A A3G {e}d2cB BAAG  | \
w:  sız  *  *  *  *  a *  nı *  *  yor  | 
G8 |
w:  muş    | 


